X: 123
T: Er guniang liaobing
L: 1/8
M: 2/4
K: F
d2d2 [I:setbarnb 1]| 
f2f d | 
c Ac2 | 
A c A c | 
d d d f | 
f d c A | 
AG2F | 
G4 | 
d2d2 | 
f2f d | 
c Ac2 | 
A c A c | 
d d d f | 
f d c A | 
AG2F | 
G4 | 
G2c A | 
G3c | 
A G F A | 
G4 | 
G2c A | 
G3c | 
A G F A | 
G4 | 
G2c2 | 
A c A G | 
c3D | 
F2F2 | 
G2c2 | 
G c G F | 
D2G2 | 
G2E D | 
C3D | 
C4 |]

@@@ Tune index: 8997
